source/img/WhatsApp_white.svg

<svg width="48" height="48" viewBox="0 0 48 48" fill="none" xmlns="http://www.w3.org/2000/svg">
<path fill-rule="evenodd" clip-rule="evenodd" d="M24 48C10.7452 48 0 37.2548 0 24C0 10.7452 10.7452 0 24 0C37.2548 0 48 10.7452 48 24C48 37.2548 37.2548 48 24 48ZM24.7911 37.3525C32.6595 37.3493 39.059 30.9483 39.0621 23.0815C39.0637 19.2683 37.5806 15.6828 34.8862 12.9854C32.1918 10.2879 28.6086 8.80165 24.7909 8.8C16.9248 8.8 10.5228 15.2017 10.5196 23.0702C10.5186 25.5855 11.1757 28.0405 12.4246 30.2048L10.4 37.6L17.9653 35.6155C20.0498 36.7524 22.3967 37.3517 24.7852 37.3525H24.7911Z" fill="#C0C0C0"/>
<path fill-rule="evenodd" clip-rule="evenodd" d="M18.3159 33.0319L13.8265 34.2096L15.0248 29.8324L14.7428 29.3836C13.5554 27.4951 12.9283 25.3124 12.9292 23.0711C12.9318 16.5311 18.2529 11.2104 24.7958 11.2104C27.964 11.2115 30.9422 12.4469 33.1817 14.689C35.4212 16.9311 36.6538 19.9112 36.6526 23.0807C36.6499 29.6212 31.3289 34.9424 24.7911 34.9424H24.7863C22.6578 34.9415 20.5702 34.3697 18.749 33.289L18.3159 33.0319ZM31.9808 26.4751C31.8917 26.3264 31.654 26.2372 31.2974 26.0586C30.9408 25.8801 29.1877 25.0176 28.8608 24.8985C28.534 24.7795 28.2961 24.7201 28.0585 25.0769C27.8208 25.4339 27.1374 26.2372 26.9294 26.4751C26.7214 26.7131 26.5133 26.7429 26.1569 26.5644C25.8003 26.3859 24.6513 26.0094 23.2893 24.7945C22.2292 23.8489 21.5135 22.6813 21.3055 22.3243C21.0975 21.9673 21.2834 21.7743 21.4619 21.5965C21.6223 21.4367 21.8185 21.1799 21.9968 20.9718C22.1751 20.7636 22.2345 20.6148 22.3533 20.377C22.4722 20.1389 22.4128 19.9307 22.3236 19.7522C22.2345 19.5737 21.5213 17.8185 21.2242 17.1045C20.9347 16.4092 20.6408 16.5034 20.4219 16.4924C20.2141 16.482 19.9762 16.4798 19.7385 16.4798C19.5008 16.4798 19.1144 16.569 18.7876 16.926C18.4607 17.283 17.5395 18.1457 17.5395 19.9008C17.5395 21.656 18.8173 23.3516 18.9956 23.5896C19.1739 23.8276 21.51 27.4293 25.0871 28.9739C25.9379 29.3413 26.602 29.5607 27.12 29.725C27.9742 29.9965 28.7516 29.9582 29.3659 29.8663C30.0511 29.764 31.4756 29.0038 31.7729 28.1709C32.0699 27.3378 32.0699 26.6238 31.9808 26.4751Z" fill="#C0C0C0"/>
</svg>

<svg width="48" height="48" fill="none" xmlns="http://www.w3.org/2000/svg"><path fill-rule="evenodd" clip-rule="evenodd" d="M24 48a24 24 0 110-48 24 24 0 010 48zm.8-10.65A14.3 14.3 0 0034.88 13 14.3 14.3 0 0012.43 30.2L10.4 37.6l7.57-1.98a14.26 14.26 0 006.82 1.73z" fill="silver"/><path fill-rule="evenodd" clip-rule="evenodd" d="M18.32 33.03l-4.5 1.18 1.2-4.38-.28-.45a11.88 11.88 0 0118.44-14.7 11.88 11.88 0 01-8.4 20.25c-2.12.01-4.21-.56-6.03-1.64l-.43-.26zm13.66-6.55c-.09-.15-.33-.24-.68-.42a59.4 59.4 0 00-2.44-1.16c-.33-.12-.56-.18-.8.18-.24.35-.92 1.16-1.13 1.4-.2.23-.42.26-.77.08-.36-.17-1.5-.55-2.87-1.77a10.75 10.75 0 01-1.98-2.47c-.21-.35-.03-.55.15-.72.16-.16.36-.42.54-.63.18-.2.23-.36.35-.6.12-.23.06-.44-.03-.62s-.8-1.93-1.1-2.65c-.29-.7-.58-.6-.8-.6-.2-.02-.44-.02-.68-.02-.24 0-.63.09-.95.45-.33.35-1.25 1.22-1.25 2.97 0 1.76 1.28 3.45 1.46 3.69.17.24 2.51 3.84 6.09 5.38.85.37 1.51.6 2.03.76.85.27 1.63.23 2.25.14.68-.1 2.1-.87 2.4-1.7.3-.83.3-1.55.21-1.7z" fill="silver"/></svg>
